X: 20191
Q: "Lively"
M: C
L: 1/8
K: G
(dc).B.A (GA).B.c | dBGB d3B | (AB).c.d (Bc).A.B | G2E2 E2 :|
|: (dc) |\
d2G2 B2G2 | g2G2 d2(cB) | (AB).c.d (Bc).A.B | G2E2 E2 :|


